svgs/sharp-regular/image-polaroid-user.svg

<svg xmlns="http://www.w3.org/2000/svg" viewBox="0 0 448 512"><!--! Font Awesome Pro 6.6.0 by @fontawesome - https://fontawesome.com License - https://fontawesome.com/license (Commercial License) Copyright 2024 Fonticons, Inc. --><path d="M48 432l0-64 352 0 0 64L48 432zM322 320l-18-48-160 0-18 48-78 0L48 80l352 0 0 240-78 0zm126 24l0-24 0-240 0-48-48 0L48 32 0 32 0 80 0 320l0 24 0 24 0 64 0 48 48 0 352 0 48 0 0-48 0-64 0-24zM288 176a64 64 0 1 0 -128 0 64 64 0 1 0 128 0z"/></svg>

<svg xmlns="http://www.w3.org/2000/svg" viewBox="0 0 448 512"><!--! Font Awesome Pro 6.4.0 by @fontawesome - https://fontawesome.com License - https://fontawesome.com/license (Commercial License) Copyright 2023 Fonticons, Inc. --><path d="M48 432V368H400v64H48zM322 320l-18-48H144l-18 48H48V80H400V320H322zm126 24V320 80 32H400 48 0V80 320v24 24 64 48H48 400h48V432 368 344zM288 176a64 64 0 1 0 -128 0 64 64 0 1 0 128 0z"/></svg>
